X: 26407
T: Merry Maids Of Connaught, The
R: reel
M: 4/4
K: Gmajor
G2 G>A G4|ABAG {A}G2 ED|{B}c2 c>d {c}B4|BABd e2 {=f}g2|
G2 G2 G4|BABG A2 =f2|{=f}e2 dB ABAG|G2 DB, G,4,:|
|:{e}=f2 fg e2 ef|{e}d2 BA G4|{e}f2 Ff e2 Ee|dBde {e}g4|
{e}f2 gf e2 fe|{e}d2 BA G2 ED|cBAG G2 G2|BABc B2 g2:|

